client/src/Assets/bw.3dl
#Created by: Adobe Photoshop Export Color Lookup Plugin
#Description: BWLut
0 33 66 99 132 165 198 231 264 297 330 363 396 429 462 495 528 561 594 627 660 693 726 759 792 825 858 891 924 957 990 1023
0 0 1
7 7 8
15 15 15
23 23 23
30 30 31
38 38 39
46 46 47
55 55 55
63 63 64
71 71 72
80 80 81
89 89 90
98 98 98
107 107 108
116 116 117
126 126 126
135 135 136
145 145 146
155 155 156
165 164 165
175 175 176
185 185 186
195 195 196
205 205 206
216 216 217
227 227 228
238 238 239
249 249 249
260 260 261
271 271 272
283 282 283
294 294 295
41 41 42
49 49 50
57 57 58
66 66 67
74 74 75
84 84 84
92 92 93
101 101 102
110 110 111
120 120 121
129 129 130
139 139 140
148 148 149
158 158 159
168 168 169
178 178 179
188 188 189
199 199 200
210 210 211
220 220 221
231 231 232
242 242 243
253 253 254
264 264 265
275 275 276
286 286 287
298 298 299
310 310 310
322 322 323
333 333 334
345 345 346
357 357 358
87 87 87
95 95 96
104 104 105
114 114 115
123 123 124
133 133 134
142 142 143
152 152 153
162 162 163
172 172 173
182 182 183
193 193 193
203 203 203
213 213 214
224 224 225
235 235 236
246 245 246
257 257 258
268 268 269
279 279 280
291 291 292
302 302 303
314 314 315
326 326 327
338 338 339
350 350 350
362 362 363
374 374 375
387 387 388
399 399 400
412 412 413
424 424 425
136 136 137
145 145 146
156 156 156
165 165 166
176 176 176
186 186 187
196 196 197
207 207 208
217 217 218
228 228 229
239 239 239
250 250 251
261 261 262
272 272 273
283 283 284
295 295 296
306 306 307
318 318 319
330 330 331
342 342 343
355 355 355
366 366 367
379 379 380
391 391 392
404 404 405
416 416 417
429 429 430
442 442 443
455 455 456
468 468 468
481 481 482
494 494 495
190 190 190
200 200 201
211 211 211
221 221 222
232 232 233
242 242 243
254 254 255
265 265 266
276 276 277
288 288 289
299 299 300
311 311 312
323 323 323
335 335 336
346 346 347
359 359 360
371 371 371
383 383 384
395 395 396
408 408 409
421 421 421
434 434 435
447 447 448
460 460 460
473 473 474
486 486 487
500 500 500
512 512 513
526 526 527
539 539 540
554 554 554
567 567 568
247 247 248
258 258 259
269 269 270
280 280 281
292 292 293
303 303 304
315 315 316
327 327 328
339 339 340
351 351 352
363 363 364
376 376 377
388 388 388
401 401 401
413 413 413
426 426 427
438 438 439
452 452 452
464 464 465
478 478 478
490 490 491
504 504 505
518 518 519
531 531 532
545 545 546
558 558 559
573 573 573
586 586 587
601 601 601
614 614 615
629 629 630
643 643 644
308 308 309
319 319 320
331 331 332
343 343 344
356 355 356
367 367 368
380 380 381
392 392 393
405 405 406
418 418 419
430 430 431
443 443 444
456 456 457
470 470 470
482 482 483
496 496 497
509 509 510
523 523 523
536 536 537
550 550 551
563 563 564
578 578 578
591 591 592
605 605 606
620 620 621
634 634 635
649 649 649
663 663 663
678 678 678
692 692 693
707 707 708
721 721 722
372 372 373
384 384 385
397 397 398
409 409 410
422 422 423
435 435 435
448 448 449
460 460 461
474 474 475
487 487 488
501 501 501
514 514 515
527 527 528
541 541 542
555 555 555
569 569 570
582 582 583
597 597 598
610 610 611
625 625 626
639 639 640
654 654 654
668 668 668
683 683 683
697 697 698
712 712 713
727 727 728
742 742 742
757 757 758
772 772 772
787 787 788
802 802 803
440 440 441
452 452 453
466 466 467
479 479 479
492 492 493
505 505 506
519 519 520
532 532 533
546 546 547
559 559 560
574 574 574
588 588 589
602 602 602
616 616 617
630 630 631
645 645 646
659 659 659
674 674 674
688 688 688
703 703 704
717 717 718
732 732 733
747 747 748
762 762 763
777 777 778
793 793 793
807 807 808
823 823 824
839 839 840
854 854 855
870 870 871
885 885 886
511 511 511
524 524 524
538 538 538
551 551 552
565 565 566
578 578 579
593 593 594
606 606 607
621 621 622
635 635 636
650 650 650
664 664 664
679 679 679
694 694 695
708 708 709
723 723 724
738 738 738
753 753 754
768 768 768
783 783 784
798 798 799
814 814 814
829 828 829
844 844 845
859 859 860
876 876 876
891 891 891
907 907 908
923 923 924
939 939 939
955 955 956
971 971 971
584 584 585
598 598 599
612 612 613
626 626 627
641 641 642
655 655 655
670 670 670
684 684 684
699 699 700
713 713 714
728 728 729
743 743 743
758 758 759
773 773 774
788 788 789
804 804 805
819 819 820
835 835 836
850 850 851
866 866 867
881 881 882
897 897 898
912 912 913
929 929 929
944 944 945
961 961 961
976 976 977
993 993 993
1008 1008 1009
1025 1025 1026
1042 1042 1043
1058 1058 1058
661 661 661
675 675 675
690 690 690
704 704 705
719 719 720
733 733 734
749 749 750
763 763 764
779 779 780
794 794 794
809 809 810
824 824 825
840 840 841
855 855 856
871 871 872
887 887 888
903 903 903
919 919 920
934 934 935
951 951 951
966 966 967
983 983 983
998 998 999
1015 1015 1016
1031 1031 1031
1048 1048 1048
1063 1063 1064
1080 1080 1081
1096 1096 1097
1113 1113 1114
1129 1129 1130
1147 1147 1147
739 739 739
754 754 755
770 770 770
784 784 785
800 800 801
815 815 815
831 831 831
846 846 846
862 862 862
877 877 877
893 893 894
908 908 909
924 924 925
940 940 940
956 956 957
972 972 972
988 988 989
1005 1005 1006
1021 1021 1021
1037 1037 1038
1053 1053 1054
1070 1070 1071
1086 1086 1087
1103 1103 1104
1119 1119 1120
1136 1136 1137
1153 1153 1153
1170 1170 1170
1186 1186 1187
1204 1203 1204
1220 1220 1220
1237 1237 1238
820 820 821
836 836 837
852 852 853
867 867 868
883 883 884
898 898 899
915 915 915
930 930 931
946 946 947
962 962 962
978 978 979
994 994 995
1011 1011 1011
1026 1026 1027
1043 1043 1044
1059 1059 1060
1076 1076 1077
1092 1092 1092
1109 1109 1110
1126 1126 1127
1142 1142 1143
1159 1159 1160
1176 1176 1176
1193 1193 1194
1209 1209 1210
1227 1227 1227
1243 1243 1244
1261 1261 1261
1277 1277 1278
1295 1295 1296
1312 1312 1312
1329 1329 1330
904 904 904
920 920 921
935 935 936
952 952 953
968 968 969
984 984 985
1001 1001 1001
1016 1016 1017
1033 1033 1034
1049 1049 1049
1066 1066 1066
1082 1081 1082
1099 1099 1099
1115 1115 1115
1132 1132 1132
1148 1148 1149
1165 1165 1166
1181 1181 1182
1199 1199 1199
1216 1216 1217
1233 1233 1233
1250 1250 1251
1267 1267 1267
1284 1284 1285
1301 1301 1302
1319 1319 1319
1335 1335 1336
1353 1353 1354
1370 1370 1371
1388 1388 1389
1405 1405 1405
1423 1423 1423
989 989 990
1006 1006 1007
1022 1022 1022
1039 1038 1039
1054 1054 1055
1071 1071 1072
1088 1088 1089
1104 1104 1105
1121 1121 1122
1138 1138 1138
1155 1155 1155
1171 1171 1172
1188 1188 1189
1205 1205 1205
1222 1222 1223
1239 1239 1239
1256 1256 1257
1273 1273 1273
1290 1290 1291
1307 1307 1307
1325 1325 1325
1343 1342 1343
1359 1359 1360
1377 1377 1378
1394 1394 1395
1412 1412 1413
1429 1429 1429
1447 1447 1448
1464 1464 1464
1482 1482 1483
1499 1499 1500
1517 1517 1518
1077 1077 1078
1094 1094 1095
1110 1110 1111
1127 1127 1128
1144 1144 1145
1161 1161 1161
1178 1178 1179
1194 1194 1195
1212 1212 1212
1228 1228 1229
1246 1246 1246
1262 1262 1263
1280 1280 1280
1296 1296 1297
1314 1314 1315
1331 1331 1331
1349 1348 1349
1365 1365 1366
1383 1383 1384
1401 1401 1402
1418 1418 1419
1436 1436 1437
1453 1453 1454
1471 1471 1472
1488 1488 1489
1506 1506 1507
1523 1523 1524
1542 1541 1542
1559 1559 1559
1577 1577 1577
1594 1594 1595
1613 1612 1613
1166 1166 1167
1184 1184 1184
1200 1200 1201
1218 1217 1218
1234 1234 1235
1251 1251 1252
1269 1269 1270
1286 1286 1286
1303 1303 1304
1320 1320 1321
1338 1338 1338
1354 1354 1355
1372 1372 1373
1389 1389 1390
1407 1407 1408
1424 1424 1425
1442 1442 1443
1459 1459 1460
1477 1477 1478
1494 1494 1495
1512 1512 1513
1531 1531 1531
1548 1548 1548
1566 1566 1566
1583 1583 1584
1601 1601 1602
1619 1619 1619
1637 1637 1638
1654 1654 1655
1673 1673 1673
1690 1690 1691
1709 1709 1709
1257 1257 1258
1275 1275 1276
1292 1291 1292
1309 1309 1310
1326 1326 1326
1344 1344 1344
1360 1360 1361
1378 1378 1379
1396 1396 1397
1413 1413 1414
1431 1431 1432
1448 1448 1449
1466 1466 1467
1483 1483 1484
1501 1501 1502
1518 1518 1519
1537 1537 1537
1554 1554 1554
1572 1572 1573
1589 1589 1590
1608 1608 1608
1625 1625 1625
1643 1643 1644
1662 1662 1662
1679 1679 1680
1698 1698 1698
1715 1715 1715
1733 1733 1734
1751 1751 1751
1769 1769 1770
1787 1787 1787
1805 1805 1806
1350 1350 1350
1368 1368 1368
1384 1384 1385
1402 1402 1403
1419 1419 1420
1437 1437 1438
1454 1454 1455
1472 1472 1473
1491 1490 1491
1508 1508 1508
1526 1526 1526
1543 1543 1543
1561 1561 1562
1578 1578 1579
1597 1597 1597
1614 1614 1614
1632 1632 1633
1649 1649 1650
1668 1668 1668
1685 1685 1686
1704 1704 1704
1721 1721 1722
1740 1740 1740
1758 1758 1759
1776 1776 1776
1794 1794 1795
1812 1812 1812
1830 1830 1831
1848 1848 1848
1866 1866 1867
1884 1884 1884
1903 1902 1903
1443 1443 1444
1461 1461 1462
1478 1478 1479
1497 1497 1497
1514 1514 1514
1532 1532 1532
1549 1549 1549
1567 1567 1568
1584 1584 1585
1603 1603 1603
1621 1621 1622
1638 1638 1639
1657 1657 1657
1674 1674 1675
1693 1693 1693
1710 1710 1710
1728 1728 1729
1746 1746 1746
1764 1764 1765
1782 1782 1782
1800 1800 1801
1818 1818 1818
1836 1836 1837
1854 1854 1854
1873 1873 1873
1891 1891 1892
1909 1909 1909
1928 1927 1928
1945 1945 1945
1964 1964 1964
1981 1981 1982
2000 2000 2000
1538 1538 1538
1556 1556 1557
1573 1573 1574
1592 1592 1592
1609 1609 1609
1627 1627 1628
1644 1644 1645
1663 1663 1664
1680 1680 1681
1699 1699 1699
1716 1716 1717
1735 1735 1735
1753 1753 1754
1771 1771 1771
1789 1789 1790
1807 1807 1807
1825 1825 1826
1843 1843 1843
1861 1861 1862
1879 1879 1879
1898 1898 1898
1915 1915 1915
1934 1934 1934
1951 1951 1952
1970 1970 1970
1987 1987 1988
2006 2006 2007
2025 2025 2025
2042 2042 2043
2061 2061 2062
2079 2079 2079
2097 2097 2098
1633 1633 1634
1652 1652 1652
1669 1669 1670
1688 1688 1688
1705 1705 1705
1724 1723 1724
1741 1741 1741
1759 1759 1760
1777 1777 1777
1795 1795 1796
1813 1813 1813
1832 1831 1832
1850 1850 1851
1868 1868 1868
1886 1886 1887
1904 1904 1904
1923 1922 1923
1940 1940 1940
1959 1959 1959
1976 1976 1977
1995 1995 1995
2012 2012 2013
2031 2031 2032
2049 2049 2049
2067 2067 2068
2085 2085 2085
2104 2104 2104
2122 2122 2123
2140 2140 2140
2159 2158 2159
2176 2176 2176
2195 2195 2195
1730 1730 1730
1748 1748 1749
1766 1766 1766
1784 1784 1785
1802 1802 1802
1820 1820 1821
1838 1838 1838
1856 1856 1857
1874 1874 1874
1893 1893 1893
1910 1910 1911
1929 1929 1929
1946 1946 1947
1965 1965 1965
1984 1984 1984
2001 2001 2002
2020 2020 2020
2037 2037 2038
2056 2056 2057
2074 2074 2074
2092 2092 2093
2110 2110 2110
2129 2129 2129
2146 2146 2147
2165 2165 2165
2182 2182 2183
2201 2201 2201
2218 2218 2219
2237 2237 2238
2256 2256 2256
2273 2273 2274
2292 2292 2292
1827 1827 1827
1845 1845 1846
1863 1863 1863
1881 1881 1882
1899 1899 1899
1918 1917 1918
1935 1935 1936
1954 1954 1954
1971 1971 1972
1990 1990 1990
2007 2007 2008
2026 2026 2027
2044 2044 2044
2062 2062 2063
2080 2080 2080
2099 2099 2099
2117 2117 2118
2135 2135 2135
2154 2153 2154
2171 2171 2171
2190 2190 2190
2207 2207 2208
2226 2226 2226
2243 2243 2244
2262 2262 2262
2279 2279 2280
2298 2298 2298
2315 2315 2316
2334 2334 2334
2352 2351 2352
2370 2370 2370
2389 2389 2389
1924 1924 1924
1943 1942 1943
1960 1960 1960
1979 1979 1979
1996 1996 1997
2015 2015 2015
2032 2032 2033
2051 2051 2052
2069 2069 2069
2087 2087 2088
2105 2105 2105
2124 2123 2124
2141 2141 2141
2160 2160 2160
2177 2177 2178
2196 2196 2196
2215 2215 2215
2232 2232 2233
2251 2251 2251
2268 2268 2269
2287 2287 2287
2304 2304 2305
2323 2323 2323
2340 2340 2341
2359 2359 2359
2376 2376 2377
2395 2395 2395
2412 2412 2412
2431 2430 2431
2448 2448 2448
2466 2466 2467
2485 2485 2485
2021 2021 2022
2039 2039 2039
2057 2057 2058
2076 2076 2077
2094 2094 2094
2112 2112 2113
2130 2130 2130
2149 2149 2149
2166 2166 2166
2185 2185 2185
2202 2202 2203
2221 2221 2221
2238 2238 2239
2257 2257 2257
2275 2274 2275
2293 2293 2294
2311 2310 2311
2329 2329 2330
2348 2348 2348
2365 2365 2365
2384 2384 2384
2401 2401 2401
2420 2419 2420
2437 2437 2437
2455 2455 2456
2472 2472 2473
2491 2491 2491
2508 2508 2508
2526 2526 2527
2544 2543 2544
2562 2562 2562
2579 2579 2579
2119 2119 2119
2136 2136 2136
2155 2155 2155
2174 2173 2174
2191 2191 2191
2210 2210 2210
2227 2227 2228
2246 2246 2246
2263 2263 2264
2282 2282 2282
2299 2299 2300
2318 2318 2318
2335 2335 2336
2354 2354 2354
2371 2371 2372
2390 2390 2390
2407 2407 2408
2426 2426 2426
2444 2444 2444
2461 2461 2462
2480 2480 2480
2497 2497 2497
2515 2515 2516
2533 2532 2533
2551 2551 2551
2568 2568 2568
2586 2586 2586
2603 2603 2603
2621 2621 2622
2638 2638 2638
2656 2656 2657
2673 2673 2674
2216 2216 2216
2233 2233 2234
2252 2252 2252
2269 2269 2270
